packages/netlify-cms-ui-default/src/Icon/images/eye.svg

<svg viewBox="0 0 24 24"><path d="m22.5567568 11.4918919c-1.4270271-1.4918919-5.7081082-5.4918919-10.1621622-5.4918919-4.80000001 0-8.84324325 4-10.18378379 5.4918919-.28108108.3027027-.28108108.7783784 0 1.0810811 1.34054054 1.4702702 5.40540541 5.427027 10.18378379 5.427027 4.7567568 0 8.8-3.9135135 10.1621622-5.4054054.3027027-.3027027.3027027-.8 0-1.1027027zm-10.1405406 4.6918919c-2.2918919 0-4.15135134-1.8594595-4.15135134-4.1513514 0-2.29189186 1.85945944-4.15135132 4.15135134-4.15135132s4.1513514 1.85945946 4.1513514 4.15135132c0 2.2918919-1.8810811 4.1513514-4.1513514 4.1513514zm0-2.7891892c.7523014 0 1.3621622-.6098608 1.3621622-1.3621622s-.6098608-1.3621621-1.3621622-1.3621621-1.3621621.6098607-1.3621621 1.3621621.6098607 1.3621622 1.3621621 1.3621622z"/></svg>

<svg viewBox="0 0 24 24"><path d="M22.5567568,11.4918919 C21.1297297,10 16.8486486,6 12.3945946,6 C7.59459459,6 3.55135135,10 2.21081081,11.4918919 C1.92972973,11.7945946 1.92972973,12.2702703 2.21081081,12.572973 C3.55135135,14.0432432 7.61621622,18 12.3945946,18 C17.1513514,18 21.1945946,14.0864865 22.5567568,12.5945946 C22.8594595,12.2918919 22.8594595,11.7945946 22.5567568,11.4918919 Z M12.4162162,16.1837838 C10.1243243,16.1837838 8.26486486,14.3243243 8.26486486,12.0324324 C8.26486486,9.74054054 10.1243243,7.88108108 12.4162162,7.88108108 C14.7081081,7.88108108 16.5675676,9.74054054 16.5675676,12.0324324 C16.5675676,14.3243243 14.6864865,16.1837838 12.4162162,16.1837838 Z M12.4162162,13.3945946 C13.1685176,13.3945946 13.7783784,12.7847338 13.7783784,12.0324324 C13.7783784,11.280131 13.1685176,10.6702703 12.4162162,10.6702703 C11.6639148,10.6702703 11.0540541,11.280131 11.0540541,12.0324324 C11.0540541,12.7847338 11.6639148,13.3945946 12.4162162,13.3945946 Z"/></svg>
